flaticon/household/table-7.svg

<svg xmlns="http://www.w3.org/2000/svg" width="32" height="32" viewBox="0 0 24 24">
    <path d="M 20.800781 17.199219 L 14.78125 17.199219 C 14.867188 17.054688 14.933594 16.894531 14.96875 16.71875 C 15.078125 16.164062 14.898438 15.609375 14.484375 15.226562 C 13.910156 14.695312 13.539062 14.113281 13.386719 13.503906 L 13.3125 13.199219 L 12.199219 13.199219 L 12.199219 12.964844 L 13.28125 11.882812 C 13.4375 11.726562 13.4375 11.472656 13.28125 11.316406 C 13.125 11.160156 12.875 11.160156 12.71875 11.316406 L 12.199219 11.835938 L 12.199219 10.742188 C 12.886719 10.5625 13.398438 9.945312 13.398438 9.199219 L 17 9.199219 L 17 2 L 7 2 L 7 9.199219 L 10.199219 9.199219 C 10.199219 9.945312 10.710938 10.5625 11.398438 10.742188 L 11.398438 13.199219 L 10.289062 13.199219 L 10.210938 13.503906 C 10.058594 14.113281 9.691406 14.695312 9.113281 15.226562 C 8.703125 15.609375 8.523438 16.164062 8.632812 16.71875 C 8.667969 16.894531 8.730469 17.054688 8.820312 17.199219 L 3.199219 17.199219 C 1.988281 17.199219 1 18.1875 1 19.398438 C 1 20.613281 1.988281 21.601562 3.199219 21.601562 L 4.527344 21.601562 L 4.128906 24 L 5.648438 24 L 6.847656 21.601562 L 17.554688 21.601562 L 18.753906 24 L 20.273438 24 L 19.871094 21.601562 L 20.800781 21.601562 C 22.011719 21.601562 23 20.613281 23 19.398438 C 23 18.1875 22.011719 17.199219 20.800781 17.199219 Z M 12.199219 9.890625 L 12.199219 8.398438 L 12.601562 8.398438 L 12.601562 9.199219 C 12.601562 9.496094 12.4375 9.753906 12.199219 9.890625 Z M 7.800781 8.398438 L 7.800781 2.800781 L 16.199219 2.800781 L 16.199219 8.398438 L 13.398438 8.398438 L 13.398438 7.601562 L 12.199219 7.601562 L 12.199219 6.398438 L 10.199219 6.398438 L 10.199219 8.398438 Z M 11 9.199219 L 11 7.199219 L 11.398438 7.199219 L 11.398438 9.890625 C 11.160156 9.753906 11 9.496094 11 9.199219 Z M 9.417969 16.5625 C 9.359375 16.285156 9.453125 16.003906 9.65625 15.8125 C 10.257812 15.257812 10.671875 14.648438 10.898438 14 L 12.703125 14 C 12.925781 14.648438 13.34375 15.257812 13.941406 15.8125 C 14.148438 16.003906 14.238281 16.285156 14.183594 16.5625 C 14.113281 16.925781 13.753906 17.199219 13.347656 17.199219 L 10.253906 17.199219 C 9.847656 17.199219 9.488281 16.925781 9.417969 16.5625 Z M 5.152344 23.199219 L 5.074219 23.199219 L 5.339844 21.601562 L 5.953125 21.601562 Z M 19.328125 23.199219 L 19.246094 23.199219 L 18.445312 21.601562 L 19.0625 21.601562 Z M 20.800781 20.800781 L 3.199219 20.800781 C 2.429688 20.800781 1.800781 20.171875 1.800781 19.398438 C 1.800781 18.628906 2.429688 18 3.199219 18 L 20.800781 18 C 21.570312 18 22.199219 18.628906 22.199219 19.398438 C 22.199219 20.171875 21.570312 20.800781 20.800781 20.800781 Z M 20.800781 20.800781"/>
    <path d="M9.398438 19.398438C9.398438 19.730469 9.132812 20 8.800781 20 8.46875 20 8.199219 19.730469 8.199219 19.398438 8.199219 19.070312 8.46875 18.800781 8.800781 18.800781 9.132812 18.800781 9.398438 19.070312 9.398438 19.398438zM15.800781 19.398438C15.800781 19.730469 15.53125 20 15.199219 20 14.867188 20 14.601562 19.730469 14.601562 19.398438 14.601562 19.070312 14.867188 18.800781 15.199219 18.800781 15.53125 18.800781 15.800781 19.070312 15.800781 19.398438zM10.601562 10.800781C10.601562 10.578125 10.421875 10.398438 10.199219 10.398438L5.800781 10.398438 5.800781.800781 18.199219.800781 18.199219 10.398438 13.398438 10.398438C13.179688 10.398438 13 10.578125 13 10.800781 13 11.019531 13.179688 11.199219 13.398438 11.199219L19 11.199219 19 0 5 0 5 11.199219 10.199219 11.199219C10.421875 11.199219 10.601562 11.019531 10.601562 10.800781zM10.601562 10.800781"/>
    <path d="M9.117188 4.117188L8.316406 4.917969C8.160156 5.074219 8.160156 5.328125 8.316406 5.484375 8.394531 5.5625 8.496094 5.601562 8.601562 5.601562 8.703125 5.601562 8.804688 5.5625 8.882812 5.484375L9.683594 4.683594C9.839844 4.527344 9.839844 4.273438 9.683594 4.117188 9.527344 3.960938 9.273438 3.960938 9.117188 4.117188zM10.484375 3.882812C10.554688 3.808594 10.601562 3.703125 10.601562 3.601562 10.601562 3.496094 10.554688 3.390625 10.484375 3.316406 10.335938 3.167969 10.0625 3.167969 9.914062 3.316406 9.84375 3.390625 9.800781 3.492188 9.800781 3.601562 9.800781 3.703125 9.84375 3.808594 9.914062 3.882812 9.992188 3.957031 10.097656 4 10.199219 4 10.304688 4 10.40625 3.957031 10.484375 3.882812zM11.800781 4.800781C11.902344 4.800781 12.003906 4.761719 12.082031 4.683594L12.882812 3.882812C13.039062 3.726562 13.039062 3.472656 12.882812 3.316406 12.726562 3.160156 12.472656 3.160156 12.316406 3.316406L11.515625 4.117188C11.359375 4.273438 11.359375 4.527344 11.515625 4.683594 11.59375 4.761719 11.699219 4.800781 11.800781 4.800781zM10.714844 5.484375C10.792969 5.554688 10.894531 5.601562 11 5.601562 11.105469 5.601562 11.207031 5.554688 11.285156 5.484375 11.359375 5.40625 11.398438 5.304688 11.398438 5.199219 11.398438 5.097656 11.355469 4.992188 11.285156 4.914062 11.132812 4.769531 10.863281 4.769531 10.714844 4.914062 10.644531 4.992188 10.601562 5.089844 10.601562 5.199219 10.601562 5.304688 10.644531 5.40625 10.714844 5.484375zM10.714844 5.484375"/>
</svg>

<svg xmlns="http://www.w3.org/2000/svg" width="32" height="32" viewBox="0 0 24 24">
    <path d="M20.8 17.2h-6.019c.086-.145.153-.305.188-.481.11-.555-.07-1.11-.485-1.492-.574-.532-.945-1.114-1.097-1.723l-.075-.305H12.2v-.234l1.082-1.082a.4.4 0 0 0 0-.567.396.396 0 0 0-.562 0l-.52.52v-1.094c.688-.18 1.2-.797 1.2-1.543H17V2H7v7.2h3.2c0 .745.51 1.363 1.198 1.542V13.2H10.29l-.078.305c-.152.61-.52 1.191-1.098 1.723a1.6 1.6 0 0 0-.48 1.492c.035.176.097.336.187.48H3.2c-1.212 0-2.2.988-2.2 2.2 0 1.214.988 2.203 2.2 2.203h1.327L4.13 24h1.52l1.199-2.398h10.707L18.754 24h1.52l-.403-2.398h.93c1.21 0 2.199-.989 2.199-2.204 0-1.21-.988-2.199-2.2-2.199zm-8.6-7.31V8.399h.402V9.2a.798.798 0 0 1-.403.692zM7.8 8.399V2.801h8.4v5.597h-2.802v-.796H12.2V6.398h-2v2zM11 9.2v-2h.398v2.692A.795.795 0 0 1 11 9.199zm-1.582 7.364a.801.801 0 0 1 .238-.75c.602-.555 1.016-1.165 1.242-1.813h1.805c.223.648.64 1.258 1.238 1.813a.803.803 0 0 1 .243.75c-.07.363-.43.636-.836.636h-3.094c-.406 0-.766-.273-.836-.637zm-4.266 6.636h-.078l.266-1.597h.613zm14.176 0h-.082l-.8-1.597h.616zm1.473-2.398H3.199c-.77 0-1.398-.63-1.398-1.403 0-.77.629-1.398 1.398-1.398h17.602c.77 0 1.398.629 1.398 1.398 0 .774-.629 1.403-1.398 1.403zm0 0"/>
    <path d="M9.398 19.398a.598.598 0 1 1-1.199 0c0-.328.27-.597.602-.597.332 0 .597.27.597.597zm0 0M15.8 19.398a.598.598 0 1 1-1.2 0 .601.601 0 0 1 1.2 0zm0 0M10.602 10.8a.402.402 0 0 0-.403-.402H5.801V.801h12.398v9.597h-4.8a.401.401 0 0 0 0 .801H19V0H5v11.2h5.2c.222 0 .402-.18.402-.4zm0 0"/>
    <path d="M9.117 4.117l-.8.801a.4.4 0 0 0 .566.566l.8-.8a.4.4 0 0 0-.566-.567zm0 0M10.484 3.883a.424.424 0 0 0 .118-.281.426.426 0 0 0-.118-.286.42.42 0 0 0-.57 0 .415.415 0 0 0-.113.286.42.42 0 0 0 .113.28A.423.423 0 0 0 10.2 4a.416.416 0 0 0 .285-.117zm0 0M11.8 4.8c.102 0 .204-.038.282-.116l.8-.801a.4.4 0 0 0-.566-.567l-.8.801a.4.4 0 0 0 .285.684zm0 0M10.715 5.484c.078.07.18.118.285.118a.434.434 0 0 0 .285-.118.412.412 0 0 0 .113-.285.438.438 0 0 0-.113-.285.43.43 0 0 0-.57 0 .423.423 0 0 0-.113.285.43.43 0 0 0 .113.285zm0 0"/>
</svg>
